dribbble.svg

<?xml version="1.0" encoding="UTF-8"?>
<svg viewBox="0 0 24 24" version="1.1" xmlns="http://www.w3.org/2000/svg" xmlns:xlink="http://www.w3.org/1999/xlink">
    <title>Dribbble</title>
    <path d="M23.6139799,3.78806438 C23.6646086,3.72679664 23.754323,3.72959664 23.8003802,3.79494573 L23.8000373,3.79494573 L23.9753519,4.04378958 C24.0086091,4.09160309 24.0083805,4.157581 23.9736376,4.20413689 C23.6692943,4.61398059 23.1360363,5.00847176 22.4926067,5.04662766 C21.9847202,5.07662085 21.5658624,4.87687188 21.337862,4.49922815 C21.2927191,4.42452991 21.1931761,4.42016382 21.1425475,4.49080443 C20.8720327,4.86779562 20.5447179,5.16260213 20.2036888,5.18290211 C19.5962593,5.2188631 19.4247162,4.7959211 19.5748879,3.8634033 C19.5899736,3.7705644 19.5115735,3.69210515 19.4271162,3.71522886 C19.3011731,3.74992035 19.1674586,3.76523729 19.0318013,3.75306442 C18.9753441,3.74804578 18.9224297,3.78369829 18.9054011,3.84182196 C18.6806007,4.608345 18.1456285,5.32139521 17.4531702,5.36267144 C17.0111124,5.38892735 16.3507685,5.12601233 16.4168258,4.02751163 C16.4223115,3.9381134 16.3450542,3.86778126 16.2655112,3.89277954 C16.1268824,3.9365473 15.9776251,3.95717949 15.8256248,3.94373713 C15.7692819,3.93873035 15.7165961,3.974371 15.6995675,4.03253027 C15.4747671,4.79902958 14.9397949,5.51210351 14.2473366,5.55334415 C13.8052788,5.57961192 13.1449349,5.31672063 13.2109922,4.21821993 C13.2164779,4.12878611 13.1392206,4.05845397 13.0596776,4.08348785 C12.9210488,4.1272556 12.7717915,4.14819626 12.6197912,4.1344217 C12.5634483,4.12943865 12.5107625,4.1650793 12.4937339,4.22320298 C12.2688193,4.98973788 11.7339613,5.70278808 11.0415259,5.74405245 C10.7270225,5.76281006 10.3017076,5.6349356 10.106393,5.1641445 C10.0687701,5.0732039 9.95594705,5.05942934 9.90009554,5.13852927 C9.62668939,5.52585434 9.29364887,5.83158797 8.94586547,5.85222015 C8.58939634,5.87346929 8.39440175,5.72498637 8.30962447,5.46018491 C8.279533,5.36672906 8.16697282,5.34451891 8.10621844,5.41861207 C7.86289234,5.71560163 7.58571476,5.93317093 7.30533718,5.94974549 C6.87307365,5.97569292 6.62422754,5.64306271 6.6037018,5.24011223 C6.57997604,4.76996181 6.77586207,4.21945383 6.99458241,3.61862894 C7.02497103,3.53516292 6.96998808,3.44480368 6.88695938,3.44105453 C6.76081061,3.43545453 6.61673039,3.42167997 6.4813016,3.3954122 C6.42025008,3.38323933 6.36095856,3.42262912 6.3435871,3.48702906 C6.08492384,4.44577905 5.68882036,5.38548667 5.35462555,5.9409777 C5.31729978,6.00319459 5.24006537,6.01976915 5.18392814,5.97692682 L4.92873917,5.78188801 C4.87637337,5.7415372 4.86219049,5.6640271 4.89719626,5.60557122 C5.38011131,4.80247025 5.80890055,3.5451646 5.95675221,2.61516205 C5.96600937,2.55576888 6.01258087,2.51169265 6.06842096,2.50825198 L6.40781577,2.48792827 C6.48564447,2.48324183 6.54699314,2.55858075 6.53281026,2.64141796 L6.53135883,2.65017388 C6.51862738,2.7239467 6.56609031,2.79334155 6.63466184,2.80304663 C6.93902804,2.84650591 7.39387446,2.85179743 7.70258352,2.83930422 C7.78938366,2.83586355 7.85073232,2.92902279 7.81918942,3.01623796 C7.57152046,3.7002204 7.23965708,4.64805514 7.25874282,5.02317175 C7.26742855,5.19259532 7.33948581,5.28513761 7.46619458,5.27762745 C7.70867496,5.26327153 8.08162411,4.75713639 8.36431027,4.19353012 C8.36951028,4.18350471 8.37325886,4.17258946 8.37557886,4.16133015 C8.47082472,3.71999834 8.61218495,3.22792252 8.7549966,2.730745 L8.76386518,2.69987384 C8.77861949,2.64799084 8.82173956,2.61172138 8.8720825,2.60860104 L9.27859742,2.58452818 C9.36251755,2.57952141 9.42529479,2.66705692 9.39984332,2.75364328 C9.37891758,2.82505508 9.35807183,2.89598044 9.33742037,2.96626512 C8.97970552,4.18342166 8.67930505,5.20561057 9.08387711,5.18168008 C9.34833467,5.16601908 9.7230324,4.70024661 10.0453415,4.03720484 C10.0505415,4.026254 10.0543129,4.01468621 10.0566329,4.00251334 C10.0728387,3.91590325 10.0924958,3.82527113 10.1165302,3.73054579 C10.3044619,2.95130412 10.5175708,2.17938278 10.7309311,1.40652416 C10.7967827,1.16800234 10.862657,0.92938679 10.9278114,0.690442599 C10.9422915,0.637612816 10.9856744,0.600412002 11.0365887,0.597284547 L11.4538465,0.572588807 C11.5386467,0.567587964 11.6013896,0.65605602 11.574761,0.743273568 C11.4081093,1.28595816 11.2339262,1.86396781 11.0684402,2.42040799 C11.0337087,2.53764009 11.1546461,2.63516542 11.2501434,2.56764514 C11.4147722,2.45073339 11.6051611,2.37319956 11.7895042,2.36226058 C12.259105,2.33443858 12.5787626,2.73551449 12.6093912,3.33978004 C12.6111055,3.37167154 12.6129341,3.40605456 12.6137341,3.44105453 C12.6154484,3.50798159 12.6637913,3.56204764 12.7255057,3.56767136 C12.9465346,3.58799507 13.1724778,3.51984598 13.3469924,3.35822918 C13.3649353,3.34165462 13.3770496,3.31914786 13.3831067,3.29475466 C13.5561356,2.59730614 13.7471073,1.90504235 13.9381933,1.21191247 C14.0036791,0.974606749 14.0691649,0.737197811 14.133965,0.499438872 C14.1483651,0.446607903 14.1917937,0.409407089 14.2427652,0.406282007 L14.6599087,0.381586267 C14.7447089,0.376585424 14.8075661,0.465051107 14.7809375,0.552268655 C14.6141944,1.09495562 14.4400227,1.6729629 14.2745367,2.22940308 C14.2397938,2.34663517 14.3608225,2.44416051 14.4562513,2.37664023 C14.6209372,2.25972847 14.8113375,2.18220651 14.9955664,2.17125567 C15.4651671,2.14344553 15.7848248,2.54450957 15.8155677,3.14879886 C15.817282,3.18065476 15.8189962,3.21507338 15.8199105,3.25007334 C15.821282,3.31696481 15.8699678,3.37105459 15.9315679,3.37669018 C16.1525968,3.39699016 16.37854,3.3288292 16.5530545,3.1672124 C16.5709974,3.15067343 16.5831117,3.12815481 16.5892832,3.10377348 C16.762312,2.40631309 16.9531695,1.71406117 17.1443698,1.02094315 C17.2098556,0.783624379 17.2752271,0.546203576 17.3400272,0.308436333 C17.3545415,0.255605363 17.3979702,0.218405736 17.4488274,0.215279467 L17.8660852,0.190583727 C17.9508853,0.185581698 18.0136283,0.274049753 17.9869997,0.361267302 C17.8203708,0.903950711 17.6461991,1.48195799 17.4807131,2.03839816 C17.4459702,2.15563026 17.5668847,2.25316746 17.6624277,2.18564718 C17.8269994,2.06872356 18.0173997,1.9912016 18.2017428,1.98026262 C18.6713436,1.95244061 18.9910012,2.35350466 19.0217441,2.95778208 C19.0234584,2.98998205 19.0251727,3.0240566 19.0259727,3.05905657 C19.0278013,3.12563956 19.0758014,3.18003781 19.1374015,3.1856734 C19.3512304,3.20535643 19.5699736,3.14221412 19.7418595,2.99185663 C19.7609453,2.97528207 19.7742025,2.95183802 19.7806025,2.92619906 C19.9776313,2.13780994 20.2670032,1.10495968 20.5459751,0.116495794 C20.560718,0.064290434 20.6040323,0.0280279751 20.6544324,0.024901944 L21.0679188,0.000206049318 C21.1518046,-0.0047956716 21.2145476,0.0821090959 21.1894047,0.168701035 C20.8054041,1.49228001 20.492375,2.65017388 20.319689,3.3332309 C20.0902029,4.25978091 20.0812886,4.52706202 20.3422033,4.51143661 C20.5612894,4.49830273 20.8563756,4.17569793 21.1346617,3.68801193 C21.1457475,3.66894585 21.1514618,3.64707977 21.152376,3.62488148 C21.1888332,2.64860778 21.7654056,1.76049841 22.6224355,1.70954083 C23.1964935,1.67546629 23.5110083,2.1256252 23.5335226,2.56858243 C23.5763798,3.41418167 22.7712357,3.95468796 21.9908916,3.9046558 C21.9000344,3.89871174 21.8339771,4.00002182 21.8739772,4.08816242 C21.9830059,4.33011305 22.212492,4.4651892 22.604264,4.44172142 C22.9769503,4.41985534 23.3678081,4.08597937 23.6139799,3.78806438 Z M10.7148511,4.02532858 C10.5296737,4.7959211 10.7544969,5.09756151 11.0452745,5.08037 C11.5226467,5.05191918 11.9844759,4.14379457 11.948933,3.4429291 C11.9332759,3.13689887 11.7608185,2.97746511 11.5594467,2.9893651 C11.2240862,3.00935661 10.8630113,3.41042066 10.7148511,4.02532858 Z M13.9209361,3.83465587 C13.735793,4.6052128 13.9605933,4.9068888 14.2514509,4.88968543 L14.2511081,4.88968543 C14.7284803,4.86124647 15.1905381,3.95312186 15.1549952,3.25225639 C15.1396809,2.9462143 14.9668806,2.78678054 14.7655089,2.7986568 C14.4301941,2.81867204 14.0691649,3.21974795 13.9209361,3.83465587 Z M17.1271126,3.64394757 C16.9419694,4.41452823 17.1667698,4.71620423 17.4575131,4.69901272 L17.4572845,4.69901272 C17.9343139,4.67056189 18.3967146,3.76243729 18.3611717,3.06157182 C18.3457431,2.75551786 18.1730571,2.59609597 17.9716853,2.60797223 C17.6363705,2.6279756 17.2752271,3.02906337 17.1271126,3.64394757 Z M22.9239217,2.63673152 C22.9210645,2.43478764 22.8015215,2.28848777 22.6076926,2.30005556 L22.607464,2.30005556 C22.2266634,2.32287079 21.9286058,2.75083142 21.8337485,3.27006485 C21.8186628,3.35260545 21.8768343,3.42949861 21.954663,3.42761217 C22.4465495,3.41482235 22.9395788,3.07781418 22.9239217,2.63673152 Z M5.0688651,3.01162271 C5.01910502,1.44700548 4.03912634,0.414469627 2.59099836,0.468237884 C1.96922596,0.49762362 1.25773913,0.742394416 0.722474285,1.1800447 C0.672130207,1.22130907 0.659108472,1.29695646 0.69325024,1.35447505 L0.920379739,1.73835945 C0.959148942,1.80400515 1.04160964,1.81744752 1.09803145,1.76868485 C1.50541951,1.41730889 2.06152324,1.18692605 2.59649551,1.16253878 C3.58891992,1.11971069 4.31804107,1.77931535 4.36058971,3.05350403 C4.41382408,4.53714676 3.45322828,6.23427744 1.90961443,6.32617905 C1.85579721,6.32931125 1.7996714,6.33056887 1.74353417,6.33056887 C1.66483691,6.33056887 1.60668824,6.250852 1.62635685,6.16831139 C1.92408303,4.92068709 2.27158072,3.58273915 2.62601556,2.3376301 C2.65060988,2.25103187 2.58810693,2.16475398 2.50449537,2.16976076 L2.05312323,2.19664548 C2.00249458,2.19976582 1.9590888,2.23634375 1.94433449,2.28885557 C1.60378538,3.51239514 1.26295056,4.83942784 0.956256366,6.08453689 C0.938606053,6.15643513 0.868299657,6.19771137 0.802908697,6.17455207 C0.642907304,6.11799449 0.496792789,6.05359455 0.372377736,5.97824377 C0.312774214,5.94198617 0.237258667,5.967637 0.206588905,6.03388779 L0.0127337437,6.45467046 C-0.0159104155,6.51688735 0.00521106904,6.59315169 0.0616315347,6.62658556 C0.501131081,6.88544295 1.1683447,7.03328519 1.83902004,6.99361065 C4.04608636,6.86228365 5.12732234,4.7459364 5.0688651,3.01223966 L5.0688651,3.01162271 Z M9.40623191,1.08924885 C9.13772863,1.10518985 8.89959111,1.41842415 8.91639114,1.7485391 C8.92736258,1.9661084 9.06192279,2.11147098 9.27081455,2.09928624 C9.53931783,2.0833405 9.78408393,1.75353401 9.76817533,1.43936481 C9.75720388,1.22179551 9.60007221,1.07768225 9.40623191,1.08924885 Z" fill="#000000"></path>
</svg>

<svg viewBox="0 0 24 24" xmlns="http://www.w3.org/2000/svg"><path d="M23.614 3.788a.115.115 0 0 1 .186.007l.175.249a.139.139 0 0 1-.001.16c-.305.41-.838.804-1.481.843-.508.03-.927-.17-1.155-.548a.115.115 0 0 0-.195-.008c-.271.377-.598.672-.94.692-.607.036-.778-.387-.628-1.32.015-.092-.063-.17-.148-.148-.126.035-.26.05-.395.038a.12.12 0 0 0-.127.089c-.224.766-.76 1.48-1.452 1.52-.442.027-1.102-.236-1.036-1.334.005-.09-.072-.16-.151-.135a1.13 1.13 0 0 1-.44.05.12.12 0 0 0-.126.09c-.225.766-.76 1.48-1.453 1.52-.442.027-1.102-.236-1.036-1.335.005-.09-.072-.16-.151-.135a1.124 1.124 0 0 1-.44.051.12.12 0 0 0-.126.09c-.225.766-.76 1.479-1.452 1.52-.315.019-.74-.11-.936-.58-.037-.09-.15-.105-.206-.025-.273.387-.606.693-.954.713-.357.021-.552-.127-.636-.392-.03-.093-.143-.115-.204-.041-.243.297-.52.514-.8.53-.433.027-.682-.306-.702-.709-.024-.47.172-1.02.39-1.621.031-.084-.024-.174-.107-.178a2.85 2.85 0 0 1-.406-.046c-.06-.012-.12.028-.137.092-.26.959-.655 1.898-.99 2.454a.115.115 0 0 1-.17.036l-.255-.195a.137.137 0 0 1-.032-.176c.483-.804.912-2.06 1.06-2.99a.123.123 0 0 1 .111-.108l.34-.02c.078-.005.139.07.125.153l-.002.01c-.012.073.035.142.104.152.304.044.759.049 1.068.036.086-.003.148.09.116.177-.247.684-.58 1.632-.56 2.007.008.17.08.262.207.255.243-.015.616-.52.898-1.084a.125.125 0 0 0 .012-.033c.095-.441.236-.933.379-1.43l.009-.031a.122.122 0 0 1 .108-.091l.407-.024c.084-.005.146.082.12.169-.02.071-.04.142-.062.212-.357 1.217-.658 2.24-.253 2.216.264-.016.639-.482.961-1.145a.143.143 0 0 0 .012-.034 4.38 4.38 0 0 1 .06-.272c.187-.78.4-1.552.614-2.324l.197-.717a.123.123 0 0 1 .109-.093l.417-.024c.085-.005.147.083.12.17-.166.543-.34 1.121-.506 1.677-.034.118.087.215.182.148.165-.117.355-.195.54-.206.47-.028.789.374.82.978l.004.101c.001.067.05.121.112.127a.8.8 0 0 0 .621-.21.128.128 0 0 0 .036-.063c.173-.698.364-1.39.555-2.083l.196-.713a.123.123 0 0 1 .109-.093l.417-.024c.085-.005.148.083.12.17-.166.543-.34 1.121-.505 1.677-.035.118.086.215.181.148.165-.117.355-.195.54-.206.47-.028.789.374.82.978l.004.101c.001.067.05.121.112.127a.8.8 0 0 0 .621-.21.129.129 0 0 0 .036-.063c.173-.698.364-1.39.555-2.083l.196-.713a.123.123 0 0 1 .109-.093l.417-.024c.085-.005.148.083.121.17-.167.543-.34 1.121-.506 1.677-.035.118.086.215.181.148.165-.117.355-.195.54-.206.47-.028.789.374.82.978l.004.101c.002.067.05.121.111.127a.801.801 0 0 0 .605-.194.128.128 0 0 0 .039-.066c.197-.788.486-1.821.765-2.81a.122.122 0 0 1 .108-.091L21.068 0c.084-.005.147.082.121.169a103.047 103.047 0 0 0-.87 3.164c-.229.927-.238 1.194.023 1.178.22-.013.514-.335.793-.823a.137.137 0 0 0 .017-.063c.037-.976.613-1.865 1.47-1.915.574-.035.889.416.912.859.042.845-.763 1.386-1.543 1.336-.091-.006-.157.095-.117.183.109.242.338.377.73.354.373-.022.764-.356 1.01-.654Zm-12.9.237c-.184.77.04 1.073.331 1.055.478-.028.94-.936.904-1.637-.016-.306-.188-.466-.39-.454-.335.02-.696.421-.844 1.036Zm3.207-.19c-.185.77.04 1.072.33 1.055.477-.029.94-.937.904-1.638-.015-.306-.188-.465-.39-.453-.335.02-.696.42-.844 1.036Zm3.206-.191c-.185.77.04 1.072.33 1.055.477-.028.94-.937.904-1.637-.015-.306-.188-.466-.39-.454-.335.02-.696.421-.844 1.036Zm5.797-1.007c-.003-.202-.122-.349-.316-.337-.381.023-.68.45-.774.97-.015.083.043.16.12.158.493-.013.986-.35.97-.791Zm-17.855.375C5.019 1.447 4.039.414 2.59.468a3.308 3.308 0 0 0-1.869.712.137.137 0 0 0-.029.174l.227.384c.04.066.122.08.178.03a2.547 2.547 0 0 1 1.498-.605c.993-.043 1.722.616 1.765 1.89.053 1.484-.908 3.181-2.451 3.273-.054.003-.11.005-.166.005-.08 0-.137-.08-.118-.163a94.134 94.134 0 0 1 1-3.83c.025-.087-.038-.173-.122-.168l-.45.027a.123.123 0 0 0-.11.092c-.34 1.223-.681 2.55-.988 3.796-.017.071-.088.113-.153.09a2.345 2.345 0 0 1-.43-.197c-.06-.036-.136-.01-.166.056l-.194.42a.136.136 0 0 0 .049.173c.44.258 1.106.406 1.777.367 2.207-.132 3.288-2.248 3.23-3.982Zm4.337-1.923c-.268.016-.506.33-.49.66.011.217.146.362.355.35.268-.016.513-.345.497-.66-.01-.217-.168-.361-.362-.35Z"/></svg>
